build/assets/img/guru-master-black.svg

<svg width="42" height="64" viewBox="0 0 42 64" fill="none" xmlns="http://www.w3.org/2000/svg">
<path d="M31.1638 46.7541C31.1638 46.7541 36.7605 43.5061 38.8305 34.5742C40.9005 25.6422 35.3805 17.2787 35.3805 17.2787" stroke="#583350" stroke-width="2"/>
<path d="M9.81865 46.7541C9.81865 46.7541 4.22197 43.5061 2.15196 34.5742C0.0819558 25.6422 5.60197 17.2787 5.60197 17.2787" stroke="#583350" stroke-width="2"/>
<path d="M31.7369 5.08197L38.2773 18.2951H2.70358L9.48333 5.08197" stroke="#583350" stroke-width="2"/>
<path d="M26.8019 35.0775C25.4276 32.1596 22.9926 32.3288 21.947 32.7781C20.9013 33.4917 20.8863 34.6017 21.1254 36.9804C21.6034 41.7377 28.6941 50.2216 32.1797 53.8689C30.9597 48.8208 28.1762 37.9953 26.8019 35.0775Z" stroke="#583350" stroke-width="2"/>
<path d="M14.6694 35.0775C16.1687 32.1596 18.825 32.3288 19.9657 32.7781C21.1064 33.4917 21.1227 34.6017 20.862 36.9804C20.3405 41.7377 12.6052 50.2216 8.80273 53.8689C10.1336 48.8208 13.1701 37.9953 14.6694 35.0775Z" stroke="#583350" stroke-width="2"/>
<path d="M26.0725 47.7705C26.1967 51.0033 24.808 59.6152 20.635 62C16.0183 59.5357 14.8998 47.7705 14.8998 47.7705" stroke="#583350" stroke-width="2"/>
<path d="M31.5687 47.7705C31.5687 47.7705 40.3105 51.1093 40.3105 62C31.5687 62 11.1447 62 1.68759 62C1.68759 52.2222 9.6347 47.7705 9.6347 47.7705" stroke="#583350" stroke-width="2"/>
<rect x="-1" y="1" width="29.5082" height="3.08197" rx="1.54098" transform="matrix(-1 0 0 1 34.2441 0)" stroke="#583350" stroke-width="2"/>
<line x1="8.80273" y1="25.4262" x2="15.9175" y2="25.4262" stroke="#583350" stroke-width="2"/>
<line x1="25.0645" y1="25.4262" x2="32.1792" y2="25.4262" stroke="#583350" stroke-width="2"/>
</svg>

<svg width="42" height="64" fill="none" xmlns="http://www.w3.org/2000/svg"><path d="M31.164 46.754s5.596-3.248 7.666-12.18c2.07-8.932-3.45-17.295-3.45-17.295M9.819 46.754s-5.597-3.248-7.667-12.18c-2.07-8.932 3.45-17.295 3.45-17.295" stroke="#583350" stroke-width="2"/><path d="M31.737 5.082l6.54 13.213H2.704l6.78-13.213m17.318 29.996c-1.374-2.918-3.81-2.75-4.855-2.3-1.046.714-1.06 1.824-.822 4.202.478 4.758 7.57 13.242 11.055 16.889-1.22-5.048-4.004-15.874-5.378-18.791z" stroke="#583350" stroke-width="2"/><path d="M14.67 35.078c1.499-2.918 4.155-2.75 5.296-2.3 1.14.714 1.157 1.824.896 4.202-.521 4.758-8.257 13.242-12.06 16.889 1.332-5.048 4.368-15.874 5.867-18.791zM26.073 47.77c.124 3.233-1.265 11.845-5.438 14.23-4.617-2.464-5.735-14.23-5.735-14.23" stroke="#583350" stroke-width="2"/><path d="M31.569 47.77S40.31 51.11 40.31 62H1.688c0-9.778 7.947-14.23 7.947-14.23" stroke="#583350" stroke-width="2"/><rect x="-1" y="1" width="29.508" height="3.082" rx="1.541" transform="matrix(-1 0 0 1 34.244 0)" stroke="#583350" stroke-width="2"/><path stroke="#583350" stroke-width="2" d="M8.803 25.426h7.115m9.146 0h7.115"/></svg>
